images/DHT.svg

<svg height="250" viewBox="0 0 250 250" width="250" xmlns="http://www.w3.org/2000/svg"><path d="m124.363281 0h1.273438c68.597656 0 124.207031 55.964844 124.207031 124.996094v.007812c0 69.03125-55.609375 124.996094-124.207031 124.996094h-1.273438c-68.597656 0-124.207031-55.964844-124.207031-124.996094v-.007812c0-69.03125 55.609375-124.996094 124.207031-124.996094zm0 0" fill="#0e0e0f"/><g fill="#00a0d0"><path d="m189.324219 186.652344-28.09375-14.902344v-85.726562l28.09375 13.503906zm0 0"/><path d="m57.609375 198.125 28.167969-12.820312v-73.371094l-28.167969 13.496094zm0 0"/><path d="m109.082031 175.699219 28.859375-11.632813v-136.191406l-28.859375 12.824219zm0 0"/></g></svg>

<svg xmlns="http://www.w3.org/2000/svg" width="250" height="250"><path fill="#0e0e0f" d="M124.363 0h1.274c68.597 0 124.207 55.965 124.207 124.996v.008c0 69.031-55.61 124.996-124.207 124.996h-1.274C55.766 250 .156 194.035.156 125.004v-.008C.156 55.965 55.766 0 124.363 0zm0 0"/><g fill="#00a0d0"><path d="M189.324 186.652 161.23 171.75V86.023l28.094 13.504zM57.61 198.125l28.167-12.82v-73.371L57.61 125.43zM109.082 175.7l28.86-11.634V27.875l-28.86 12.824zm0 0"/></g></svg>
